assets/images/about/history-3.svg

<svg width="129" height="85" viewBox="0 0 129 85" fill="none" xmlns="http://www.w3.org/2000/svg">
<path d="M22.7971 21.738L23.0346 19.9659L21.3722 20.911L19.9474 19.9659H16.9789L17.2164 18.1937L13.8917 19.9659L12.4668 19.1389L12.2294 20.911L7.71731 20.084L6.64866 17.4849L11.3982 16.5397L13.0605 15.5946L14.7229 14.7676L14.4854 16.5397H17.4539L19.1162 15.5946L20.3036 18.1937L21.9659 17.3667L23.6283 16.4216H29.6839L29.209 19.9659L27.1904 22.565L49.7507 25.0461L53.0754 23.2739L51.7693 22.4469L53.4316 21.6199L56.1626 23.2739L61.1496 20.6748L62.5745 21.5018L64.2368 20.6748L67.5615 18.9026L71.7173 21.5018L69.8175 24.1009L79.554 20.5566L76.8231 18.9026L78.7229 16.1853L84.3036 19.7296L89.2906 17.0123L98.196 18.7845L97.9585 20.4385L93.209 21.3836L94.0401 25.7549L98.7897 24.8098L95.1088 28.3541L87.0346 31.0714L86.2034 36.2697L90.9529 35.3245L88.9344 38.0418L91.4279 41.468L99.8583 37.0967L105.32 40.5229L101.996 42.295L97.6023 41.468L89.5281 44.0672L94.7526 49.3836L97.6023 51.0376L102.233 50.2106L103.42 52.8098L98.6709 53.6368L92.4965 53.7549L91.4279 60.7254L83.5912 61.6705L74.9232 58.1262L74.4483 61.6705L69.9362 60.8435L68.0364 63.4427L76.9418 65.0967L76.5856 66.8688H70.5299L63.2869 64.3878L59.131 61.7887H52.9566L48.2071 62.6157L43.2201 65.333L36.8082 67.1051L34.3147 63.5608L40.7266 61.7887L47.1385 60.0165L39.8954 57.4174L31.8212 60.1347L26.003 58.3625L21.8472 55.7634L17.3351 54.9364L14.0104 56.7085L13.773 58.4807L9.26091 57.6537L7.36109 60.2528L2.84903 59.4258L4.86759 56.7085L8.19226 54.9364L9.8546 54.1094H12.9418L14.8416 51.5102L10.6858 48.911L14.0104 47.1389L3.20525 47.9659L2.1366 45.3667L0.949219 42.7676L5.46128 43.5946L11.042 37.4511L11.2795 35.7971L18.5225 38.3963L21.6097 38.2781L19.9474 29.6537L17.6913 24.3372L22.7971 21.738Z" stroke="#0000BD" stroke-miterlimit="10"/>
<path d="M54.3802 43.2413C55.7573 43.2413 56.8737 42.1305 56.8737 40.7603C56.8737 39.3901 55.7573 38.2793 54.3802 38.2793C53.0031 38.2793 51.8867 39.3901 51.8867 40.7603C51.8867 42.1305 53.0031 43.2413 54.3802 43.2413Z" fill="#DF0112"/>
<path d="M55.2148 39.933C55.2148 39.933 101.285 -2.95309 126.695 38.7516" stroke="#DF0112" stroke-miterlimit="10" stroke-dasharray="2 2"/>
<path d="M124.734 38.6539L126.352 39.0038L126.84 39.1093L126.946 38.6219L127.289 37.0512L127.467 37.3169L127.025 39.3429L124.877 38.8976L124.734 38.6539Z" fill="#FF3B3B" stroke="#DF0112"/>
<path d="M53.5509 41.5861C53.5509 41.5861 27.0015 23.4994 15.6733 79.392" stroke="#DF0112" stroke-miterlimit="10" stroke-dasharray="2 2"/>
<path d="M14.34 77.7651L15.2426 79.1119L15.5196 79.5252L15.9343 79.2502L17.2443 78.3816L17.1729 78.664L15.5084 79.7852L14.3019 77.9848L14.34 77.7651Z" fill="#FF3B3B" stroke="#DF0112"/>
<path d="M55.2139 41.5866C55.2139 41.5866 58.4198 -6.02526 37.6406 2.71736" stroke="#DF0112" stroke-miterlimit="10" stroke-dasharray="2 2"/>
<path d="M38.1388 0.938662L37.5343 2.40902L37.3435 2.87309L37.8082 3.06226L39.3507 3.6901L39.0534 3.8266L37.0883 3.02672L37.7983 1.08386L38.1388 0.938662Z" fill="#FF3B3B" stroke="#DF0112"/>
<path d="M56.043 41.586C56.043 41.586 80 22.9998 94.6329 82.7" stroke="#DF0112" stroke-miterlimit="10" stroke-dasharray="2 2"/>
<path d="M93.0163 81.9097L94.4425 82.7792L94.8803 83.0461L95.1361 82.6017L95.9651 81.1614L96.0326 81.4533L94.9042 83.2838L93.0749 82.1685L93.0163 81.9097Z" fill="#FF3B3B" stroke="#DF0112"/>
</svg>

<svg width="129" height="85" fill="none" xmlns="http://www.w3.org/2000/svg"><path d="M22.797 21.738l.238-1.772-1.663.945-1.425-.945H16.98l.237-1.772-3.324 1.772-1.425-.827-.238 1.772-4.512-.827-1.068-2.6 4.75-.944 1.662-.945 1.662-.827-.238 1.772h2.969l1.662-.945 1.188 2.599 1.662-.827 1.662-.945h6.056l-.475 3.544-2.019 2.599 22.56 2.481 3.325-1.772-1.306-.827 1.663-.827 2.73 1.654 4.988-2.6 1.425.828 1.662-.827 3.325-1.772 4.155 2.599-1.9 2.599 9.737-3.544-2.73-1.654 1.899-2.718 5.58 3.545 4.988-2.718 8.905 1.773-.237 1.654-4.75.945.831 4.37 4.75-.944-3.681 3.544-8.074 2.717-.832 5.199 4.75-.946-2.019 2.718 2.494 3.426 8.43-4.371 5.462 3.426-3.324 1.772-4.394-.827-8.074 2.6 5.225 5.316 2.85 1.654 4.63-.827 1.187 2.599-4.75.827-6.174.118-1.068 6.97-7.837.945-8.668-3.544-.475 3.544-4.512-.827-1.9 2.6 8.906 1.654-.356 1.772H70.53l-7.243-2.481-4.156-2.6h-6.174l-4.75.828-4.987 2.717-6.412 1.772-2.493-3.544 6.412-1.772 6.412-1.773-7.244-2.599-8.074 2.718-5.818-1.773-4.156-2.599-4.512-.827-3.325 1.773-.237 1.772-4.512-.827-1.9 2.599-4.512-.827 2.019-2.718 3.324-1.772 1.663-.827h3.087l1.9-2.599-4.156-2.599 3.324-1.772-10.805.827-1.068-2.6-1.188-2.598 4.512.827 5.581-6.144.238-1.654 7.243 2.6 3.087-.119-1.663-8.624-2.256-5.317 5.106-2.599z" stroke="#0000BD" stroke-miterlimit="10"/><path d="M54.38 43.241a2.487 2.487 0 002.494-2.48 2.487 2.487 0 00-2.494-2.482 2.487 2.487 0 00-2.493 2.481 2.487 2.487 0 002.493 2.481z" fill="#DF0112"/><path d="M55.215 39.933s46.07-42.886 71.48-1.181" stroke="#DF0112" stroke-miterlimit="10" stroke-dasharray="2 2"/><path d="M124.734 38.654l1.618.35.488.105.106-.487.343-1.57.178.265-.442 2.026-2.148-.445-.143-.244z" fill="#FF3B3B" stroke="#DF0112"/><path d="M53.55 41.586S27.003 23.5 15.674 79.392" stroke="#DF0112" stroke-miterlimit="10" stroke-dasharray="2 2"/><path d="M14.34 77.765l.903 1.347.277.413.414-.275 1.31-.868-.071.282-1.665 1.121-1.206-1.8.038-.22z" fill="#FF3B3B" stroke="#DF0112"/><path d="M55.214 41.587S58.42-6.025 37.64 2.717" stroke="#DF0112" stroke-miterlimit="10" stroke-dasharray="2 2"/><path d="M38.139.939l-.605 1.47-.19.464.464.19 1.543.627-.298.137-1.965-.8.71-1.943.34-.145z" fill="#FF3B3B" stroke="#DF0112"/><path d="M56.043 41.586S80 23 94.633 82.7" stroke="#DF0112" stroke-miterlimit="10" stroke-dasharray="2 2"/><path d="M93.016 81.91l1.426.87.438.266.256-.444.83-1.44.067.291-1.129 1.83-1.83-1.115-.058-.258z" fill="#FF3B3B" stroke="#DF0112"/></svg>
